public_html/images/parchment-border.svg

<svg fill="none" height="842" preserveAspectRatio="none" viewBox="0 0 595 842" width="595" xmlns="http://www.w3.org/2000/svg"><path clip-rule="evenodd" d="m595 0h-595v842h595zm-592.03493 6.9674c-.53837.01818-.96558.45955-.96623.99823l-.19945 165.34337c-.00051.416.25669.789.6458.936l10.08451 3.819c.8613.327.8611 1.545-.0002 1.871l-10.09775 3.821c-.38844.147-.64559.519-.64609.934l-.1757 145.657c-.00048.397.23372.756.59687.916l10.94557 4.822c.9901.436.6788 1.915-.4031 1.915h-10.14978c-.55182 0-.99934.447-1 .999l-.26925 223.211c-.00079.654.61502 1.132 1.24801.97l8.54412-2.187c1.0087-.259 1.6912 1.004.9225 1.707l-10.40207 9.503c-.20707.189-.32517.457-.32551.737l-.10884 90.234c-.00026.212.06688.418.19173.59l10.15659 13.941c.4354.598.094 1.445-.6342 1.574l-8.91073 1.575c-.47727.085-.82532.499-.82591.984l-.18478 153.183c-.00066.544.43349.989.97722 1.001l174.5216 3.978 140.5-9 269.911 8.964c.586.019 1.063-.467 1.032-1.052l-2.908-55.737c-.021-.408-.288-.762-.675-.894l-16.45-5.628c-.783-.268-.921-1.316-.233-1.777l17.281-11.579c.277-.186.443-.497.443-.831v-218.343c0-.744-.785-1.228-1.45-.893l-7.859 3.957c-.981.495-1.926-.726-1.201-1.552l14.347-16.354c.159-.181.247-.414.248-.655l.978-216.886c.002-.439-.283-.829-.703-.959l-17.238-5.344c-.933-.289-.94-1.608-.01-1.907l13.395-4.313c.404-.13.682-.501.693-.925l4.812-181.4c.014-.508-.357-.946-.86-1.017l-27.369-3.856c-1.013-.143-1.184-1.533-.237-1.917l27.99-11.3501c.376-.1524.623-.5167.625-.9222l.433-94.79469c.003-.56577-.464-1.02101-1.03-1.00413l-266.965 7.96912-174-8z" fill="#000" fill-rule="evenodd"/></svg>

<svg preserveAspectRatio="none" width="595" height="842" viewBox="0 0 595 842" fill="none" xmlns="http://www.w3.org/2000/svg">
<path fill-rule="evenodd" clip-rule="evenodd" d="M595 0H0V842H595V0ZM2.96507 6.9674C2.4267 6.98558 1.99949 7.42695 1.99884 7.96563L1.79939 173.309C1.79888 173.725 2.05608 174.098 2.44519 174.245L12.5297 178.064C13.391 178.391 13.3908 179.609 12.5295 179.935L2.43175 183.756C2.04331 183.903 1.78616 184.275 1.78566 184.69L1.60996 330.347C1.60948 330.744 1.84368 331.103 2.20683 331.263L13.1524 336.085C14.1425 336.521 13.8312 338 12.7493 338H2.59952C2.0477 338 1.60018 338.447 1.59952 338.999L1.33027 562.21C1.32948 562.864 1.94529 563.342 2.57828 563.18L11.1224 560.993C12.1311 560.734 12.8136 561.997 12.0449 562.7L1.64283 572.203C1.43576 572.392 1.31766 572.66 1.31732 572.94L1.20848 663.174C1.20822 663.386 1.27536 663.592 1.40021 663.764L11.5568 677.705C11.9922 678.303 11.6508 679.15 10.9226 679.279L2.01187 680.854C1.5346 680.939 1.18655 681.353 1.18596 681.838L1.00118 835.021C1.00052 835.565 1.43467 836.01 1.9784 836.022L176.5 840L317 831L586.911 839.964C587.497 839.983 587.974 839.497 587.943 838.912L585.035 783.175C585.014 782.767 584.747 782.413 584.36 782.281L567.91 776.653C567.127 776.385 566.989 775.337 567.677 774.876L584.958 763.297C585.235 763.111 585.401 762.8 585.401 762.466V544.123C585.401 543.379 584.616 542.895 583.951 543.23L576.092 547.187C575.111 547.682 574.166 546.461 574.891 545.635L589.238 529.281C589.397 529.1 589.485 528.867 589.486 528.626L590.464 311.74C590.466 311.301 590.181 310.911 589.761 310.781L572.523 305.437C571.59 305.148 571.583 303.829 572.513 303.53L585.908 299.217C586.312 299.087 586.59 298.716 586.601 298.292L591.413 116.892C591.427 116.384 591.056 115.946 590.553 115.875L563.184 112.019C562.171 111.876 562 110.486 562.947 110.102L590.937 98.7519C591.313 98.5995 591.56 98.2352 591.562 97.8297L591.995 3.03501C591.998 2.46924 591.531 2.014 590.965 2.03088L324 10L150 2L2.96507 6.9674Z" fill="black"/>
</svg>
